X:117
T:score201
L:1/8
Q:1/4=96
M:3/4
I:linebreak $
K:Dmin
!p! (d>e dA B/A/G/F/) | PED (F/G/A) (=B/^c/d) | (e/f/g) Pfe (f/g/a) |$ Pf3 e d2 | %4
!f! Pa>b (a/g/f) (g/f/e) | (f/g/a) (a/g/f) (g/f/e) | (f/e/d) (d/e/f) (e/f/g) |$ Pg3 f f2 | %8
!p! (ac' af g/f/e) | (fa fd e/d/^c) | (df dA B/A/G) |$ PF3 E D2 |] %12
